X:1
T:J. Reid Maxwell's March
M:C|
L:1/8
Q:80
C:Michael Grey
S:Hornpipe
K:HP
|: {g}A|
{GdG}f{g}f3/4a/4g3/4f/4{g}e3/4d/4|
{g}e/4f3/4{g}d3/4B/4{gAd}A{g}d3/4c/4|  !
{g}B3/4d/4{c}d3/4B/4{g}A3/4d/4{g}d/4f3/4|
{a}g3/4a/4f3/4d/4{gef}e{g}A{GdG}f{g}f3/4a/4g3/4f/4{g}e3/4d/4|
{g}e/4f3/4{g}d3/4B/4{gAd}A{g}d3/4c/4|  !
{g}B3/4d/4{c}d3/4B/4{g}A3/4d/4{g}f3/4d/4|
{g}e3/4d/4{g}d/4{G}d3/4{g}d:| |:
{g}f3/4g/4|  !
a3/4g/4{a}g3/4a/4f3/4A/4{g}d3/4f/4|
a3/4g/4{a}g3/4a/4{fg}f{g}e3/4f/4|
{a}g3/4a/4f3/4a/4{g}a3/4f/4{g}d3/4a/4|  !
g3/4a/4f3/4d/4{gef}e{g}f3/4g/4|1 a3/4g/4{a}g3/4a/4f3/4A/4{g}d3/4f/4|
a3/4g/4{a}g3/4a/4{fg}f{g}d3/4c/4|
{g}B3/4d/4{c}d3/4B/4{g}A3/4d/4{g}f3/4d/4|  !
{g}e3/4d/4{g}d/4{G}d3/4{g}d:| |:
{g}d3/4B/4|
{g}A3/4d/4{g}f3/4A/4{gAGAG}A{g}f3/4A/4|  !
{g}d3/4e/4{g}f3/4d/4{gAd}A{g}d3/4c/4|
{g}B3/4d/4{c}d3/4B/4{g}A3/4d/4{g}d/4f3/4|
{a}g3/4a/4f3/4d/4{gef}e{g}d3/4B/4{g}A3/4d/4{g}f3/4A/4{gAGAG}A{g}f3/4A/4|
  !
{g}d3/4e/4{g}f3/4d/4{gAd}A{g}d3/4c/4|
{g}B3/4d/4{c}d3/4B/4{g}A3/4d/4{g}f3/4d/4|
{g}e3/4d/4{g}d/4{G}d3/4{g}d:| |:  !
{g}f3/4g/4|
a3/4g/4{a}g3/4a/4{g}a3/4d/4{g}f3/4g/4|
{a}g3/4f/4{g}f3/4g/4a3/4f/4{g}d3/4f/4|  !
{a}g3/4f/4{g}e3/4d/4{g}f3/4a/4{g}a3/4f/4|
{a}g3/4a/4f3/4d/4{gef}e{g}f3/4g/4|1 a3/4g/4{a}g3/4a/4{g}a3/4d/4{g}f3/4g/
4|
{a}g3/4f/4{g}f3/4g/4a3/4f/4{g}d3/4c/4|  !
{g}B3/4d/4{c}d3/4B/4{g}A3/4d/4{g}f3/4d/4|
{g}e3/4d/4{g}d/4{G}d3/4{g}d:|

